X:170
T: Ballyvoile House
N: O'Farrell's Pocket Companion v.2 (Sky ed. p.87)
N: "Irish"
M: 9/8
L: 1/8
R: slip jig
Q: 320
K: D
d|: AGF DED D2d|AGF E2F G2E|AGF DED D2d|e2E E2F G2E :|
ded dcB A2A|BcB d2e f2e|ded dcB AGF|e2E E2F G2E :|
